dist/svg/file-code-o.svg

<!-- Generated by Trend Micro Style Portal -->
<svg version="1.1" xmlns="http://www.w3.org/2000/svg" width="16" height="16" viewBox="0 0 16 16">
  <title>file-code-o</title>
  <path fill="rgb(34,34,34)" d="M11 0h-9c-0.5 0-1 0.5-1 1v14c0 0.5 0.5 1 1 1h12c0.5 0 1-0.5 1-1v-11l-4-4zM11 1.4l2.6 2.6h-2.6v-2.6zM14 15h-12v-14h8v4h4v10zM10.6 7.2l0.9-0.4 1.6 3.2-1.6 3.2-0.9-0.4 1.4-2.8-1.4-2.8zM5.4 7.2l-1.3 2.8 1.4 2.8-0.9 0.4-1.7-3.2 1.6-3.2 0.9 0.4zM8.5 5.9l1 0.2-2 8-1-0.2 2-8z"></path>
</svg>

<svg width="16" height="16" viewBox="0 0 16 16" fill="rgb(34, 34, 34)" xmlns="http://www.w3.org/2000/svg"><title>file-code-o</title><path d="M11 0H2C1.5 0 1 0.5 1 1V15C1 15.5 1.5 16 2 16H14C14.5 16 15 15.5 15 15V4L11 0ZM11 1.4L13.6 4H11V1.4ZM14 15H2V1H10V5H14V15ZM10.6 7.2L11.5 6.8L13.1 10L11.5 13.2L10.6 12.8L12 10L10.6 7.2ZM5.4 7.2L4.1 10L5.5 12.8L4.6 13.2L2.9 10L4.5 6.8L5.4 7.2ZM8.5 5.9L9.5 6.1L7.5 14.1L6.5 13.9L8.5 5.9Z" fill="rgb(34, 34, 34)" fill-opacity="1.00"/></svg>
